packages/ui/public/icons/wallet.svg

<svg width="22" height="19" viewBox="0 0 22 19" fill="none" xmlns="http://www.w3.org/2000/svg">
<path d="M19 7V4.7C19 3.5799 19 3.01984 18.782 2.59202C18.5903 2.2157 18.2843 1.90974 17.908 1.71799C17.4802 1.5 16.9201 1.5 15.8 1.5H4.2C3.0799 1.5 2.51984 1.5 2.09202 1.71799C1.7157 1.90973 1.40973 2.21569 1.21799 2.59202C1 3.01984 1 3.5799 1 4.7V14.3C1 15.4201 1 15.9802 1.21799 16.408C1.40973 16.7843 1.71569 17.0903 2.09202 17.282C2.51984 17.5 3.07989 17.5 4.2 17.5L15.8 17.5C16.9201 17.5 17.4802 17.5 17.908 17.282C18.2843 17.0903 18.5903 16.7843 18.782 16.408C19 15.9802 19 15.4201 19 14.3V12M14 9.5C14 9.03535 14 8.80302 14.0384 8.60982C14.1962 7.81644 14.8164 7.19624 15.6098 7.03843C15.803 7 16.0353 7 16.5 7H18.5C18.9647 7 19.197 7 19.3902 7.03843C20.1836 7.19624 20.8038 7.81644 20.9616 8.60982C21 8.80302 21 9.03535 21 9.5C21 9.96466 21 10.197 20.9616 10.3902C20.8038 11.1836 20.1836 11.8038 19.3902 11.9616C19.197 12 18.9647 12 18.5 12H16.5C16.0353 12 15.803 12 15.6098 11.9616C14.8164 11.8038 14.1962 11.1836 14.0384 10.3902C14 10.197 14 9.96465 14 9.5Z" stroke="white" stroke-width="2" stroke-linecap="round" stroke-linejoin="round"/>
</svg>

<svg width="22" height="19" fill="none" xmlns="http://www.w3.org/2000/svg"><path d="M19 7V4.7c0-1.12 0-1.68-.218-2.108a2 2 0 0 0-.874-.874C17.48 1.5 16.92 1.5 15.8 1.5H4.2c-1.12 0-1.68 0-2.108.218a2 2 0 0 0-.874.874C1 3.02 1 3.58 1 4.7v9.6c0 1.12 0 1.68.218 2.108a2 2 0 0 0 .874.874c.428.218.988.218 2.108.218h11.6c1.12 0 1.68 0 2.108-.218a2 2 0 0 0 .874-.874C19 15.98 19 15.42 19 14.3V12m-5-2.5c0-.465 0-.697.038-.89a2 2 0 0 1 1.572-1.572C15.803 7 16.035 7 16.5 7h2c.465 0 .697 0 .89.038a2 2 0 0 1 1.572 1.572c.038.193.038.425.038.89s0 .697-.038.89a2 2 0 0 1-1.572 1.572c-.193.038-.425.038-.89.038h-2c-.465 0-.697 0-.89-.038a2 2 0 0 1-1.572-1.572C14 10.197 14 9.965 14 9.5Z" stroke="#fff" stroke-width="2" stroke-linecap="round" stroke-linejoin="round"/></svg>
